;FLAVOR:Marlin
;TIME:3281
;Filament used: 0.977347m
;Layer height: 0.2
;Generated with Cura_SteamEngine 3.5.1
M140 S60
M105
M190 S60
M104 S195
M105
M109 S195
M82 ;absolute extrusion mode
;STOCK
G21 ;metric values
G90 ;absolute positioning
M82 ;set extruder to absolute mode
M107 ;start with the fan off
G28 X0 Y0 ;move X/Y to min endstops
G28 Z0 ;move Z to min endstops

M206 Z0.05;

G1 Z15.0 F9000 ;move the platform down 15mm
G92 E0 ;zero the extruded length
G1 F9000

M117 Prepping...
G1 X20 Y20 Z0.3 ;move to start
G1 F1200 X280 Y20 E18.54826 ;make line
M204 S5000 ;acc 5000
M205 X30 Y30 ;x/y jerk 30
G1 F3000 E15.54826 ;retract 3mm
G1 F300 Z1.3 ;raise up
G1 F3000 E18.54826 ;prime 3mm
G92 E0 ;zero the extruded length

M117 Printing...
G92 E0
G1 F1200 E-3
;LAYER_COUNT:167
;LAYER:0
M107
M204 S5000
M205 X30 Y30
G0 F3000 X129.539 Y139.453 Z0.3
M204 S1500
M205 X10 Y10
;TYPE:SKIRT
G1 F1200 E0.08315
G1 F828.6 X130.238 Y138.879 E0.14023
G1 X131.288 Y138.189 E0.21953
G1 X132.48 Y137.506 E0.30623
G1 X133.284 Y137.091 E0.36333
G1 X134.12 Y136.75 E0.42031
G1 X135.172 Y136.436 E0.4896
G1 X136.137 Y136.204 E0.55224
G1 X137.024 Y136.032 E0.60926
G1 X137.924 Y135.939 E0.66636
G1 X138.721 Y135.923 E0.71667
G1 X142.574 Y135.996 E0.95988
G1 X149.903 Y135.809 E1.42257
G1 X150.492 Y135.811 E1.45975
G1 X154.137 Y135.928 E1.68991
G1 X161.341 Y135.813 E2.14462
G1 X162.244 Y135.839 E2.20163
G1 X163.574 Y136.024 E2.28638
G1 X164.662 Y136.249 E2.35649
G1 X165.538 Y136.471 E2.41353
G1 X166.391 Y136.769 E2.47055
G1 X167.214 Y137.142 E2.52758
G1 X167.991 Y137.536 E2.58256
G1 X168.778 Y137.98 E2.63959
G1 X169.524 Y138.492 E2.69669
G1 X170.22 Y139.068 E2.75371
G1 X170.832 Y139.669 E2.80784
G1 X171.834 Y140.74 E2.9004
G1 X172.422 Y141.427 E2.95747
G1 X172.947 Y142.163 E3.01453
G1 X173.454 Y143.037 E3.07829
G1 X173.929 Y143.958 E3.14369
G1 X174.308 Y144.779 E3.20076
G1 X174.612 Y145.631 E3.25785
G1 X174.809 Y146.364 E3.30576
G1 X175.118 Y147.715 E3.39322
G1 X175.28 Y148.605 E3.45031
G1 X175.363 Y149.505 E3.50735
G1 X175.367 Y150.409 E3.56441
G1 X175.29 Y151.309 E3.62141
G1 X175.109 Y152.309 E3.68555
G1 X174.778 Y153.732 E3.77776
G1 X174.535 Y154.603 E3.83482
G1 X174.056 Y155.801 E3.91625
G1 X173.829 Y156.279 E3.94965
G1 X173.405 Y157.078 E4.00673
G1 X172.94 Y157.798 E4.06083
G1 X172.444 Y158.499 E4.11502
G1 X171.89 Y159.213 E4.17206
G1 X171.39 Y159.76 E4.21883
G1 X170.642 Y160.521 E4.28617
G1 X169.98 Y161.137 E4.34324
G1 X169.267 Y161.692 E4.40026
G1 X168.507 Y162.182 E4.45733
G1 X167.924 Y162.498 E4.49918
G1 X167.2 Y162.86 E4.55027
G1 X166.374 Y163.228 E4.60734
G1 X165.519 Y163.522 E4.6644
G1 X164.222 Y163.814 E4.7483
G1 X162.606 Y164.069 E4.85155
G1 X161.708 Y164.17 E4.90858
G1 X160.718 Y164.19 E4.97108
G1 X156.315 Y164.063 E5.24907
G1 X149.151 Y164.16 E5.70124
G1 X148.633 Y164.154 E5.73393
G1 X144.749 Y164.009 E5.97923
G1 X138.998 Y164.085 E6.34221
G1 X138.095 Y164.057 E6.39923
G1 X137.411 Y163.982 E6.44266
G1 X136.311 Y163.824 E6.51279
G1 X135.423 Y163.656 E6.56983
G1 X134.553 Y163.41 E6.62689
G1 X133.906 Y163.172 E6.67039
G1 X133.256 Y162.907 E6.7147
G1 X132.435 Y162.529 E6.77174
G1 X131.437 Y161.941 E6.84484
G1 X130.693 Y161.444 E6.90131
G1 X129.964 Y160.909 E6.95838
G1 X128.98 Y160.006 E7.04266
G1 X128.423 Y159.423 E7.09355
G1 X127.829 Y158.742 E7.15058
G1 X127.296 Y158.012 E7.20763
G1 X126.77 Y157.124 E7.27276
G1 X126.153 Y155.952 E7.35635
G1 X125.767 Y155.134 E7.41344
G1 X125.456 Y154.286 E7.47044
G1 X125.222 Y153.418 E7.52718
G1 X125.076 Y152.764 E7.56947
G1 X124.918 Y151.874 E7.62652
G1 X124.839 Y150.973 E7.6836
G1 X124.83 Y150.509 E7.71289
G1 X124.833 Y149.409 E7.78231
G1 X124.875 Y148.506 E7.83936
G1 X124.998 Y147.61 E7.89644
G1 X125.285 Y146.43 E7.97308
G1 X125.611 Y145.371 E8.04301
G1 X125.915 Y144.52 E8.10004
G1 X126.471 Y143.368 E8.18077
G1 X126.84 Y142.712 E8.22827
G1 X127.318 Y141.944 E8.28536
G1 X127.862 Y141.222 E8.34241
G1 X128.273 Y140.752 E8.38182
G1 X128.894 Y140.086 E8.43929
G1 X129.539 Y139.453 E8.49632
M204 S5000
M205 X30 Y30
G1 F1200 E5.49632
G1 F300 Z1.3
G0 F3000 X136.518 Y147.203 Z1.3
M204 S1500
M205 X10 Y10
;TYPE:SUPPORT
G1 F300 Z0.3
G1 F1200 E8.57947
G1 F828.6 X136.787 Y147.004 E8.60059
G1 X137.172 Y146.761 E8.62932
G1 X137.834 Y146.492 E8.67442
G1 X138.514 Y146.352 E8.71824
G1 X139.214 Y146.347 E8.76241
G1 X139.902 Y146.478 E8.80661
G1 X140.57 Y146.741 E8.85192
G1 X140.975 Y146.987 E8.88183
G1 X141.214 Y147.161 E8.90049
G1 X143.269 Y149.24 E9.08497
G1 X143.888 Y149.135 E9.1246
G1 X144.127 Y148.627 E9.16003
G1 X144.141 Y148.645 E9.16147
G1 X144.76 Y148.645 E9.20053
G1 X144.766 Y148.637 E9.20117
G1 X144.915 Y148.945 E9.22276
G1 X145.527 Y149.055 E9.262
G1 X147.58 Y147.094 E9.44118
G1 X147.942 Y146.837 E9.4692
G1 X148.366 Y146.601 E9.49982
G1 X148.892 Y146.393 E9.53552
G1 X149.246 Y146.302 E9.55859
G1 X149.786 Y146.236 E9.59292
G1 X150.168 Y146.236 E9.61703
G1 X150.757 Y146.311 E9.6545
G1 X151.173 Y146.415 E9.68156
G1 X151.595 Y146.585 E9.71028
G1 X152.044 Y146.832 E9.74262
G1 X152.444 Y147.122 E9.7738
G1 X152.738 Y147.401 E9.79938
G1 X154.286 Y149.23 E9.9506
G1 X154.902 Y149.201 E9.98952
G1 X155.228 Y148.732 E10.02557
G1 X155.838 Y148.754 E10.06409
G1 X155.876 Y148.71 E10.06776
G1 X156.175 Y149.039 E10.09582
G1 X156.761 Y149.052 E10.13281
G1 X159.01 Y146.797 E10.33381
G1 X159.414 Y146.635 E10.36128
G1 X159.755 Y146.437 E10.38616
G1 X160.772 Y146.239 E10.45155
G1 X161.499 Y146.243 E10.49744
G1 X162.509 Y146.453 E10.56254
G1 X162.831 Y146.655 E10.58653
G1 X163.257 Y146.832 E10.61564
G1 X164.085 Y147.672 E10.69008
G1 X164.151 Y147.767 E10.69738
G1 X164.496 Y148.368 E10.74112
G1 X164.648 Y148.716 E10.76508
G1 X164.744 Y149.018 E10.78508
G1 X164.941 Y149.992 E10.8478
G1 X164.746 Y150.989 E10.91191
G1 X164.639 Y151.314 E10.93351
G1 X164.527 Y151.584 E10.95195
G1 X164.169 Y152.201 E10.99697
G1 X164.046 Y152.35 E11.00917
G1 X163.777 Y152.64 E11.03413
G1 X163.235 Y153.179 E11.08237
G1 X162.818 Y153.351 E11.11084
G1 X162.518 Y153.537 E11.13312
G1 X161.485 Y153.757 E11.19977
G1 X160.781 Y153.761 E11.2442
G1 X159.768 Y153.569 E11.30927
G1 X159.429 Y153.359 E11.33444
G1 X159.007 Y153.198 E11.36295
G1 X156.696 Y150.908 E11.56827
G1 X156.094 Y150.964 E11.60643
G1 X155.876 Y151.28 E11.63066
G1 X155.86 Y151.26 E11.63228
G1 X155.255 Y151.243 E11.67047
G1 X155.229 Y151.272 E11.67293
G1 X154.84 Y150.846 E11.70934
G1 X154.244 Y150.853 E11.74696
G1 X152.759 Y152.573 E11.89037
G1 X152.403 Y152.907 E11.92118
G1 X152.016 Y153.188 E11.95136
G1 X151.628 Y153.404 E11.97938
G1 X151.148 Y153.591 E12.0119
G1 X150.762 Y153.691 E12.03706
G1 X150.173 Y153.764 E12.07452
G1 X149.795 Y153.764 E12.09837
G1 X149.281 Y153.701 E12.13106
G1 X148.844 Y153.587 E12.15956
G1 X148.369 Y153.401 E12.19175
G1 X148.003 Y153.198 E12.21817
G1 X147.586 Y152.892 E12.25081
G1 X147.263 Y152.591 E12.27867
G1 X145.813 Y150.804 E12.42391
G1 X145.226 Y150.763 E12.46105
G1 X144.254 Y151.666 E12.54478
G1 X143.895 Y150.872 E12.59977
G1 X143.274 Y150.76 E12.6396
G1 X141.222 Y152.833 E12.82368
G1 X140.99 Y153.002 E12.8418
G1 X140.58 Y153.252 E12.8721
G1 X139.891 Y153.522 E12.91881
G1 X139.211 Y153.653 E12.96251
G1 X138.513 Y153.648 E13.00656
G1 X137.836 Y153.509 E13.05018
G1 X137.163 Y153.235 E13.09604
G1 X136.798 Y153.003 E13.12333
G1 X136.516 Y152.796 E13.14541
G1 X135.999 Y152.259 E13.19246
G1 X135.923 Y152.16 E13.20033
G1 X135.613 Y151.631 E13.23903
G1 X135.368 Y151.059 E13.2783
G1 X135.262 Y150.532 E13.31223
G1 X135.227 Y150 E13.34587
G1 X135.262 Y149.465 E13.37971
G1 X135.369 Y148.937 E13.41371
G1 X135.608 Y148.378 E13.45208
G1 X135.916 Y147.85 E13.49066
G1 X136.013 Y147.726 E13.50059
G1 X136.518 Y147.203 E13.54648
M204 S5000
M205 X30 Y30
G1 F1200 E10.54648
G1 F300 Z1.3
G0 F3000 X137.126 Y148.529 Z1.3
M204 S1500
M205 X10 Y10
G1 F300 Z0.3
G1 F1200 E13.62963
G1 F828.6 X136.965 Y148.754 E13.64709
G1 X136.715 Y149.285 E13.68413
G1 X136.604 Y150 E13.72979
G1 X136.715 Y150.715 E13.77546
G1 X136.965 Y151.246 E13.8125
G1 X137.127 Y151.472 E13.83005
G1 X137.712 Y151.965 E13.87833
G1 X138.473 Y152.278 E13.93026
G1 X139.252 Y152.284 E13.97942
G1 X140.015 Y151.998 E14.03085
G1 X140.657 Y151.473 E14.08319
G1 X140.767 Y151.327 E14.09473
G1 X141.061 Y150.717 E14.13746
G1 X141.178 Y150 E14.18331
G1 X141.061 Y149.283 E14.22916
G1 X140.767 Y148.672 E14.27195
G1 X140.656 Y148.525 E14.28358
G1 X140.015 Y148.001 E14.33583
G1 X139.252 Y147.715 E14.38726
G1 X138.472 Y147.723 E14.43648
G1 X137.713 Y148.036 E14.4883
G1 X137.126 Y148.529 E14.53668
M204 S5000
M205 X30 Y30
G1 F1200 E11.53668
G1 F300 Z1.3
G0 F3000 X148.123 Y148.673 Z1.3
M204 S1500
M205 X10 Y10
G1 F300 Z0.3
G1 F1200 E14.61983
G1 F828.6 X147.829 Y149.283 E14.66256
G1 X147.712 Y150 E14.70841
G1 X147.829 Y150.717 E14.75426
G1 X148.123 Y151.328 E14.79705
G1 X148.234 Y151.475 E14.80868
G1 X148.875 Y151.999 E14.86093
G1 X149.638 Y152.285 E14.91236
G1 X150.418 Y152.277 E14.96159
G1 X151.177 Y151.964 E15.0134
G1 X151.764 Y151.471 E15.06178
G1 X151.925 Y151.246 E15.07924
G1 X152.175 Y150.715 E15.11628
G1 X152.286 Y150 E15.16195
G1 X152.175 Y149.285 E15.20761
G1 X151.925 Y148.754 E15.24465
G1 X151.763 Y148.528 E15.2622
G1 X151.178 Y148.035 E15.31048
G1 X150.417 Y147.722 E15.36241
G1 X149.638 Y147.716 E15.41158
G1 X148.875 Y148.002 E15.463
G1 X148.233 Y148.527 E15.51534
G1 X148.123 Y148.673 E15.52688
M204 S5000
M205 X30 Y30
G1 F1200 E12.52688
G1 F300 Z1.3
G0 F3000 X147.552 Y149.852 Z1.3
M204 S1500
M205 X10 Y10
G1 F300 Z0.3
G1 F1200 E15.61003
G1 F828.6 X145.93 Y148.916 E15.72822
M204 S5000
M205 X30 Y30
G1 F1200 E12.72822
G1 F300 Z1.3
G0 F3000 X144 Y149.298 Z1.3
M204 S1500
M205 X10 Y10
G1 F300 Z0.3
G1 F1200 E15.81137
G1 F828.6 X144 Y150.707 E15.90029
M204 S5000
M205 X30 Y30
G1 F1200 E12.90029
G1 F300 Z1.3
G0 F3000 X142.468 Y148.686 Z1.3
M204 S1500
M205 X10 Y10
G1 F300 Z0.3
G1 F1200 E15.98344
G1 F828.6 X141.26 Y149.383 E16.07146
M204 S5000
M205 X30 Y30
G1 F1200 E13.07146
G1 F300 Z1.3
G0 F3000 X137.17 Y151.744 Z1.3
M204 S1500
M205 X10 Y10
G1 F300 Z0.3
G1 F1200 E16.15461
G1 F828.6 X136.259 Y152.27 E16.221
M204 S5000
M205 X30 Y30
G0 F3000 X136 Y151.935
M204 S1500
M205 X10 Y10
G1 F828.6 X136 Y148.064 E16.4653
M204 S5000
M205 X30 Y30
G1 F1200 E13.4653
G1 F300 Z1.3
G0 F3000 X149.985 Y153.583 Z1.3
M204 S1500
M205 X10 Y10
G1 F300 Z0.3
G1 F1200 E16.54845
G1 F828.6 X153.297 Y151.671 E16.78981
M204 S5000
M205 X30 Y30
G1 F1200 E13.78981
G1 F300 Z1.3
G0 F3000 X152 Y151.451 Z1.3
M204 S1500
M205 X10 Y10
G1 F300 Z0.3
G1 F1200 E16.87296
G1 F828.6 X152 Y152.978 E16.96933
M204 S5000
M205 X30 Y30
G0 F3000 X152.406 Y152.655
M204 S1500
M205 X10 Y10
G1 F828.6 X151.354 Y152.047 E17.04601
M204 S5000
M205 X30 Y30
G1 F1200 E14.04601
G1 F300 Z1.3
G0 F3000 X152 Y148.549 Z1.3
M204 S1500
M205 X10 Y10
G1 F300 Z0.3
G1 F1200 E17.12916
G1 F828.6 X152 Y147.023 E17.22547
M204 S5000
M205 X30 Y30
G1 F1200 E14.22547
G1 F300 Z1.3
G0 F3000 X154.959 Y150.711 Z1.3
M204 S1500
M205 X10 Y10
G1 F300 Z0.3
G1 F1200 E17.30862
G1 F828.6 X162.148 Y146.561 E17.8325
M204 S5000
M205 X30 Y30
G1 F1200 E14.8325
G1 F300 Z1.3
G0 F3000 X160 Y146.572 Z1.3
M204 S1500
M205 X10 Y10
G1 F300 Z0.3
G1 F1200 E17.91565
G1 F828.6 X160 Y153.43 E18.34846
M204 S5000
M205 X30 Y30
G1 F1200 E15.34846
G1 F300 Z1.3
G0 F3000 X164.66 Y150.492 Z1.3
M204 S1500
M205 X10 Y10
G1 F300 Z0.3
G1 F1200 E18.43161
G1 F828.6 X158.896 Y147.164 E18.85167
M204 S5000
M205 X30 Y30
G1 F1200 E15.85167
G1 F300 Z1.3
G0 F3000 X139.399 Y149.653 Z1.3
M204 S1500
M205 X10 Y10
;TYPE:WALL-INNER
G1 F300 Z0.3
G1 F1200 E18.93482
G1 F828.6 X139.486 Y150 E18.9574
G1 X139.4 Y150.345 E18.97983
G1 X139.024 Y150.589 E19.00812
G1 X138.733 Y150.582 E19.02649
G1 X138.368 Y150.326 E19.05463
G1 X138.29 Y150 E19.07579
G1 X138.37 Y149.67 E19.09722
G1 X138.732 Y149.418 E19.12505
G1 X139.025 Y149.411 E19.14355
G1 X139.399 Y149.653 E19.17166
M204 S5000
M205 X30 Y30
G0 F3000 X139.752 Y149.356
M204 S1500
M205 X10 Y10
;TYPE:WALL-OUTER
G1 F828.6 X139.793 Y149.413 E19.17609
G1 X139.94 Y150 E19.21428
G1 X139.794 Y150.585 E19.25234
G1 X139.751 Y150.642 E19.25684
G1 X139.15 Y151.032 E19.30206
G1 X138.589 Y151.019 E19.33747
G1 X137.979 Y150.59 E19.38454
G1 X137.837 Y150 E19.42284
G1 X137.983 Y149.404 E19.46156
G1 X138.589 Y148.981 E19.50821
G1 X139.151 Y148.968 E19.54368
G1 X139.752 Y149.356 E19.58883
M204 S5000
M205 X30 Y30
G0 F3000 X139.793 Y149.413
G0 X139.824 Y149.539
G0 X139.355 Y149.655
G0 X139.023 Y149.923
M204 S1500
M205 X10 Y10
;TYPE:SKIN
G1 F828.6 X139.043 Y150.001 E19.59391
G1 X139.024 Y150.076 E19.5988
G1 X138.901 Y150.156 E19.60806
G1 X138.873 Y150.155 E19.60982
G1 X138.748 Y150.067 E19.61947
G1 X138.732 Y150 E19.62382
G1 X138.749 Y149.93 E19.62836
G1 X138.871 Y149.845 E19.63775
G1 X138.902 Y149.844 E19.63971
G1 X139.023 Y149.923 E19.64883
M204 S5000
M205 X30 Y30
G0 F3000 X139.012 Y149.926
G1 F1200 E16.64883
G1 F300 Z1.3
G0 F3000 X139.012 Y149.926 Z1.3
G0 X150.157 Y149.418
M204 S1500
M205 X10 Y10
;TYPE:WALL-INNER
G1 F300 Z0.3
G1 F1200 E19.73198
G1 F828.6 X150.522 Y149.674 E19.76011
G1 X150.6 Y150 E19.78127
G1 X150.52 Y150.33 E19.8027
G1 X150.158 Y150.582 E19.83053
G1 X149.865 Y150.589 E19.84903
G1 X149.491 Y150.347 E19.87715
G1 X149.404 Y150 E19.89972
G1 X149.49 Y149.655 E19.92216
G1 X149.866 Y149.411 E19.95045
G1 X150.157 Y149.418 E19.96882
M204 S5000
M205 X30 Y30
G0 F3000 X150.301 Y148.981
M204 S1500
M205 X10 Y10
;TYPE:WALL-OUTER
G1 F828.6 X150.911 Y149.41 E20.01589
G1 X151.053 Y150 E20.05419
G1 X150.907 Y150.596 E20.09291
G1 X150.301 Y151.019 E20.13955
G1 X149.739 Y151.032 E20.17503
G1 X149.138 Y150.644 E20.22018
G1 X149.097 Y150.587 E20.22461
G1 X148.95 Y150 E20.2628
G1 X149.096 Y149.415 E20.30085
G1 X149.139 Y149.358 E20.30536
G1 X149.74 Y148.968 E20.35057
G1 X150.301 Y148.981 E20.38599
M204 S5000
M205 X30 Y30
G0 F3000 X150.464 Y149.096
G0 X150.185 Y149.491
G0 X150.017 Y149.845
M204 S1500
M205 X10 Y10
;TYPE:SKIN
G1 F828.6 X150.142 Y149.933 E20.39564
G1 X150.158 Y149.999 E20.39992
G1 X150.141 Y150.07 E20.40453
G1 X150.019 Y150.155 E20.41391
G1 X149.988 Y150.156 E20.41587
G1 X149.867 Y150.077 E20.42499
G1 X149.847 Y149.998 E20.43013
G1 X149.866 Y149.924 E20.43496
G1 X149.989 Y149.844 E20.44422
G1 X150.017 Y149.845 E20.44598
M204 S5000
M205 X30 Y30
G0 F3000 X150.01 Y149.854
G1 F1200 E17.44598
G1 F300 Z1.3
G0 F3000 X150.01 Y149.854 Z1.3
G0 X136.507 Y147.186
;TIME_ELAPSED:42.570406
;LAYER:1
M140 S60
G0 F4500 X136.507 Y147.186 Z1.5
M204 S1500
M205 X10 Y10
;TYPE:SUPPORT
G1 F300 Z0.5
G1 F1200 E20.52914
G1 F600 X136.77 Y146.991 E20.5397
G1 X137.165 Y146.741 E20.55478
G1 X137.824 Y146.474 E20.57772
G1 X138.514 Y146.332 E20.60045
G1 X139.217 Y146.327 E20.62313
G1 X139.906 Y146.458 E20.64575
G1 X140.575 Y146.722 E20.66896
G1 X140.997 Y146.979 E20.6849
G1 X141.227 Y147.145 E20.69405
G1 X143.277 Y149.218 E20.78811
G1 X143.875 Y149.116 E20.80768
G1 X144.123 Y148.59 E20.82644
G1 X144.149 Y148.624 E20.82782
G1 X144.747 Y148.625 E20.84712
G1 X144.768 Y148.597 E20.84824
G1 X144.927 Y148.926 E20.86003
G1 X145.519 Y149.035 E20.87945
G1 X147.562 Y147.082 E20.97064
G1 X147.935 Y146.818 E20.98538
G1 X148.36 Y146.583 E21.00105
G1 X148.882 Y146.376 E21.01917
G1 X149.242 Y146.283 E21.03116
G1 X149.791 Y146.216 E21.049
G1 X150.171 Y146.216 E21.06126
G1 X150.755 Y146.29 E21.08026
G1 X151.184 Y146.397 E21.09452
G1 X151.604 Y146.567 E21.10914
G1 X152.047 Y146.81 E21.12544
G1 X152.457 Y147.108 E21.14179
G1 X152.757 Y147.392 E21.15512
G1 X154.296 Y149.209 E21.23194
G1 X154.892 Y149.181 E21.25119
G1 X155.226 Y148.701 E21.27006
G1 X155.237 Y148.716 E21.27066
G1 X155.827 Y148.735 E21.2897
G1 X155.876 Y148.679 E21.2921
G1 X156.183 Y149.018 E21.30686
G1 X156.753 Y149.032 E21.32525
G1 X158.998 Y146.782 E21.4278
G1 X159.402 Y146.619 E21.44185
G1 X159.75 Y146.417 E21.45483
G1 X160.769 Y146.219 E21.48832
G1 X161.498 Y146.223 E21.51184
G1 X162.518 Y146.435 E21.54546
G1 X162.84 Y146.637 E21.55772
G1 X163.269 Y146.814 E21.57269
G1 X164.101 Y147.659 E21.61095
G1 X164.17 Y147.76 E21.6149
G1 X164.516 Y148.361 E21.63727
G1 X164.668 Y148.708 E21.64949
G1 X164.763 Y149.007 E21.65961
G1 X164.962 Y149.99 E21.69197
G1 X164.768 Y150.982 E21.72458
G1 X164.652 Y151.334 E21.73654
G1 X164.549 Y151.587 E21.74535
G1 X164.186 Y152.212 E21.76867
G1 X164.105 Y152.317 E21.77295
G1 X163.788 Y152.657 E21.78794
G1 X163.247 Y153.195 E21.81256
G1 X162.827 Y153.369 E21.82723
G1 X162.526 Y153.555 E21.83864
G1 X161.484 Y153.777 E21.87301
G1 X160.777 Y153.781 E21.89582
G1 X159.76 Y153.588 E21.92922
G1 X159.419 Y153.377 E21.94216
G1 X158.997 Y153.216 E21.95673
G1 X156.69 Y150.929 E22.06153
G1 X156.108 Y150.982 E22.08039
G1 X155.878 Y151.315 E22.09344
G1 X155.848 Y151.277 E22.09501
G1 X155.262 Y151.264 E22.11392
G1 X155.229 Y151.301 E22.11552
G1 X154.831 Y150.865 E22.13456
G1 X154.253 Y150.872 E22.15321
G1 X152.779 Y152.58 E22.226
G1 X152.417 Y152.92 E22.24202
G1 X152.028 Y153.204 E22.25756
G1 X151.629 Y153.425 E22.27227
G1 X151.157 Y153.61 E22.28863
G1 X150.772 Y153.71 E22.30146
G1 X150.167 Y153.784 E22.32113
G1 X149.8 Y153.784 E22.33297
G1 X149.276 Y153.72 E22.35
G1 X148.828 Y153.603 E22.36494
G1 X148.363 Y153.42 E22.38106
G1 X147.996 Y153.218 E22.39457
G1 X147.572 Y152.906 E22.41156
G1 X147.238 Y152.595 E22.42628
G1 X145.802 Y150.824 E22.49984
G1 X145.232 Y150.783 E22.51828
G1 X144.247 Y151.7 E22.56169
G1 X143.881 Y150.889 E22.5904
G1 X143.281 Y150.78 E22.61007
G1 X141.233 Y152.849 E22.704
G1 X141.001 Y153.019 E22.71328
G1 X140.586 Y153.271 E22.72894
G1 X139.896 Y153.542 E22.75286
G1 X139.214 Y153.673 E22.77526
G1 X138.515 Y153.668 E22.79781
G1 X137.826 Y153.527 E22.8205
G1 X137.154 Y153.253 E22.84392
G1 X136.781 Y153.016 E22.85817
G1 X136.506 Y152.814 E22.86918
G1 X135.985 Y152.274 E22.89339
G1 X135.905 Y152.17 E22.89762
G1 X135.596 Y151.641 E22.91739
G1 X135.349 Y151.063 E22.93767
G1 X135.241 Y150.532 E22.95515
G1 X135.207 Y150 E22.97235
G1 X135.242 Y149.461 E22.98977
G1 X135.349 Y148.936 E23.00706
G1 X135.591 Y148.367 E23.02701
G1 X135.898 Y147.841 E23.04666
G1 X135.997 Y147.714 E23.05185
G1 X136.507 Y147.186 E23.07554
M204 S5000
M205 X30 Y30
G1 F1200 E20.07554
G1 F300 Z1.5
G0 F4500 X137.01 Y148.038 Z1.5
M204 S1500
M205 X10 Y10
G1 F300 Z0.5
G1 F1200 E23.15869
G1 F600 X136.555 Y148.626 E23.18267
G1 X136.323 Y149.119 E23.20025
G1 X136.251 Y149.331 E23.20747
G1 X136.176 Y150 E23.22919
G1 X136.251 Y150.669 E23.25091
G1 X136.323 Y150.882 E23.25817
G1 X136.556 Y151.375 E23.27576
G1 X137.01 Y151.964 E23.29975
G1 X137.199 Y152.121 E23.30768
G1 X137.745 Y152.455 E23.32833
G1 X138.486 Y152.682 E23.35333
G1 X139.24 Y152.69 E23.37766
G1 X139.984 Y152.478 E23.40262
G1 X140.587 Y152.122 E23.42521
G1 X140.721 Y152.013 E23.43078
G1 X141.228 Y151.376 E23.45705
G1 X141.411 Y150.992 E23.47077
G1 X141.522 Y150.67 E23.48176
G1 X141.601 Y150 E23.50352
G1 X141.522 Y149.33 E23.52529
G1 X141.411 Y149.007 E23.53631
G1 X141.227 Y148.623 E23.55005
G1 X140.721 Y147.986 E23.57629
G1 X140.585 Y147.877 E23.58191
G1 X139.984 Y147.521 E23.60445
G1 X139.24 Y147.31 E23.6294
G1 X138.486 Y147.318 E23.65373
G1 X137.745 Y147.546 E23.67874
G1 X137.198 Y147.88 E23.69942
G1 X137.01 Y148.038 E23.70734
M204 S5000
M205 X30 Y30
G1 F1200 E20.70734
G1 F300 Z1.5
G0 F4500 X148.169 Y147.987 Z1.5
M204 S1500
M205 X10 Y10
G1 F300 Z0.5
G1 F1200 E23.79049
G1 F600 X147.662 Y148.624 E23.81676
G1 X147.479 Y149.008 E23.83048
G1 X147.368 Y149.33 E23.84147
G1 X147.289 Y150 E23.86323
G1 X147.368 Y150.67 E23.885
G1 X147.479 Y150.993 E23.89602
G1 X147.663 Y151.377 E23.90976
G1 X148.169 Y152.014 E23.936
G1 X148.305 Y152.123 E23.94163
G1 X148.906 Y152.479 E23.96416
G1 X149.65 Y152.69 E23.98911
G1 X150.404 Y152.682 E24.01344
G1 X151.145 Y152.454 E24.03845
G1 X151.692 Y152.12 E24.05913
G1 X151.88 Y151.962 E24.06705
G1 X152.335 Y151.374 E24.09104
G1 X152.567 Y150.881 E24.10862
G1 X152.639 Y150.669 E24.11584
G1 X152.714 Y150 E24.13756
G1 X152.639 Y149.331 E24.15928
G1 X152.567 Y149.118 E24.16653
G1 X152.334 Y148.625 E24.18412
G1 X151.88 Y148.036 E24.20811
G1 X151.691 Y147.879 E24.21604
G1 X151.145 Y147.545 E24.23669
G1 X150.404 Y147.318 E24.26169
G1 X149.65 Y147.31 E24.28602
G1 X148.906 Y147.522 E24.31098
G1 X148.303 Y147.878 E24.33357
G1 X148.169 Y147.987 E24.33914
M204 S5000
M205 X30 Y30
G1 F1200 E21.33914
G1 F300 Z1.5
G0 F4500 X147.171 Y149.632 Z1.5
M204 S1500
M205 X10 Y10
G1 F300 Z0.5
G1 F1200 E24.42229
G1 F600 X145.894 Y148.895 E24.46986
M204 S5000
M205 X30 Y30
G1 F1200 E21.46986
G1 F300 Z1.5
G0 F4500 X144 Y149.226 Z1.5
M204 S1500
M205 X10 Y10
G1 F300 Z0.5
G1 F1200 E24.55301
G1 F600 X144 Y150.761 E24.60254
M204 S5000
M205 X30 Y30
G1 F1200 E21.60254
G1 F300 Z1.5
G0 F4500 X142.504 Y148.665 Z1.5
M204 S1500
M205 X10 Y10
G1 F300 Z0.5
G1 F1200 E24.68569
G1 F600 X141.635 Y149.167 E24.71806
M204 S5000
M205 X30 Y30
G1 F1200 E21.71806
G1 F300 Z1.5
G0 F4500 X136.802 Y151.957 Z1.5
M204 S1500
M205 X10 Y10
G1 F300 Z0.5
G1 F1200 E24.80121
G1 F600 X136.223 Y152.291 E24.82278
M204 S5000
M205 X30 Y30
G0 F4500 X136 Y152.014
M204 S1500
M205 X10 Y10
G1 F600 X136 Y147.984 E24.9528
M204 S5000
M205 X30 Y30
G1 F1200 E21.9528
G1 F300 Z1.5
G0 F4500 X149.914 Y153.624 Z1.5
M204 S1500
M205 X10 Y10
G1 F300 Z0.5
G1 F1200 E25.03595
G1 F600 X153.402 Y151.61 E25.16589
M204 S5000
M205 X30 Y30
G1 F1200 E22.16589
G1 F300 Z1.5
G0 F4500 X152.441 Y152.675 Z1.5
M204 S1500
M205 X10 Y10
G1 F300 Z0.5
G1 F1200 E25.24904
G1 F600 X151.746 Y152.273 E25.27494
M204 S5000
M205 X30 Y30
G0 F4500 X152 Y152.066
M204 S1500
M205 X10 Y10
G1 F600 X152 Y153.027 E25.30595
M204 S5000
M205 X30 Y30
G1 F1200 E22.30595
G1 F300 Z1.5
G0 F4500 X154.924 Y150.731 Z1.5
M204 S1500
M205 X10 Y10
G1 F300 Z0.5
G1 F1200 E25.3891
G1 F600 X162.199 Y146.531 E25.66011
M204 S5000
M205 X30 Y30
G1 F1200 E22.66011
G1 F300 Z1.5
G0 F4500 X160 Y146.53 Z1.5
M204 S1500
M205 X10 Y10
G1 F300 Z0.5
G1 F1200 E25.74326
G1 F600 X160 Y153.471 E25.9672
M204 S5000
M205 X30 Y30
G1 F1200 E22.9672
G1 F300 Z1.5
G0 F4500 X164.697 Y150.513 Z1.5
M204 S1500
M205 X10 Y10
G1 F300 Z0.5
G1 F1200 E26.05035
G1 F600 X158.862 Y147.144 E26.26772
M204 S5000
M205 X30 Y30
G1 F1200 E23.26772
G1 F300 Z1.5
G0 F4500 X152 Y146.975 Z1.5
M204 S1500
M205 X10 Y10
G1 F300 Z0.5
G1 F1200 E26.35087
G1 F600 X152 Y147.929 E26.38165
M204 S5000
M205 X30 Y30
G1 F1200 E23.38165
G1 F300 Z1.5
G0 F4500 X139.129 Y148.536 Z1.5
M204 S1500
M205 X10 Y10
;TYPE:WALL-INNER
G1 F300 Z0.5
G1 F1200 E26.4648
G1 F600 X139.595 Y148.717 E26.48093
G1 X140.063 Y149.101 E26.50046
G1 X140.271 Y149.532 E26.5159
G1 X140.348 Y150 E26.5312
G1 X140.271 Y150.468 E26.5465
G1 X140.063 Y150.9 E26.56197
G1 X139.596 Y151.281 E26.58142
G1 X139.128 Y151.463 E26.59762
G1 X138.633 Y151.459 E26.61359
G1 X138.144 Y151.257 E26.63066
G1 X137.732 Y150.909 E26.64806
G1 X137.672 Y150.826 E26.65136
G1 X137.508 Y150.475 E26.66386
G1 X137.434 Y150 E26.67937
G1 X137.508 Y149.525 E26.69488
G1 X137.672 Y149.174 E26.70738
G1 X137.731 Y149.092 E26.71064
G1 X138.147 Y148.742 E26.72818
G1 X138.63 Y148.542 E26.74504
G1 X139.129 Y148.536 E26.76114
M204 S5000
M205 X30 Y30
G0 F4500 X139.249 Y148.153
M204 S1500
M205 X10 Y10
;TYPE:WALL-OUTER
G1 F600 X139.799 Y148.367 E26.78018
G1 X140.353 Y148.821 E26.80329
G1 X140.406 Y148.891 E26.80612
G1 X140.657 Y149.412 E26.82478
G1 X140.753 Y150 E26.844
G1 X140.657 Y150.588 E26.86322
G1 X140.407 Y151.107 E26.88181
G1 X140.353 Y151.179 E26.88471
G1 X139.8 Y151.631 E26.90775
G1 X139.246 Y151.847 E26.92694
G1 X139.187 Y151.864 E26.92892
G1 X138.551 Y151.858 E26.94944
G1 X137.934 Y151.603 E26.97098
G1 X137.437 Y151.183 E26.99197
G1 X137.328 Y151.033 E26.99795
G1 X137.122 Y150.592 E27.01366
G1 X137.03 Y150 E27.03298
G1 X137.122 Y149.408 E27.05231
G1 X137.328 Y148.967 E27.06802
G1 X137.436 Y148.818 E27.07395
G1 X137.934 Y148.398 E27.09497
G1 X138.549 Y148.143 E27.11645
G1 X139.187 Y148.135 E27.13704
G1 X139.249 Y148.153 E27.13912
M204 S5000
M205 X30 Y30
G0 F4500 X139.435 Y148.225
G0 X139.275 Y148.635
G0 X139.253 Y148.691
G0 X139.75 Y149.35
M204 S1500
M205 X10 Y10
;TYPE:SKIN
G1 F600 X139.849 Y149.554 E27.14643
G1 X139.897 Y149.654 E27.15001
G1 X139.941 Y149.919 E27.15868
G1 X139.954 Y150 E27.16133
G1 X139.94 Y150.082 E27.16401
G1 X139.896 Y150.348 E27.17271
G1 X139.848 Y150.448 E27.17629
G1 X139.75 Y150.653 E27.18362
G1 X139.663 Y150.724 E27.18724
G1 X139.397 Y150.941 E27.19832
G1 X139.221 Y151.009 E27.2044
G1 X139.117 Y151.05 E27.20801
G1 X139.058 Y151.073 E27.21005
G1 X138.713 Y151.069 E27.22118
G1 X138.639 Y151.038 E27.22377
G1 X138.499 Y150.981 E27.22865
G1 X138.349 Y150.919 E27.23389
G1 X138.095 Y150.7 E27.24471
G1 X138.008 Y150.625 E27.24841
G1 X137.921 Y150.44 E27.25501
G1 X137.886 Y150.364 E27.25771
G1 X137.856 Y150.17 E27.26404
G1 X137.83 Y150 E27.26959
G1 X137.856 Y149.83 E27.27514
G1 X137.886 Y149.638 E27.28141
G1 X137.921 Y149.566 E27.28399
G1 X138.018 Y149.361 E27.29131
G1 X138.07 Y149.318 E27.29348
G1 X138.351 Y149.081 E27.30534
G1 X138.5 Y149.019 E27.31055
G1 X138.638 Y148.962 E27.31537
G1 X138.712 Y148.931 E27.31795
G1 X139.06 Y148.927 E27.32918
G1 X139.119 Y148.95 E27.33123
G1 X139.218 Y148.988 E27.33465
G1 X139.392 Y149.056 E27.34067
G1 X139.649 Y149.267 E27.3514
G1 X139.75 Y149.35 E27.35562
M204 S5000
M205 X30 Y30
G0 F4500 X138.988 Y150.69
M204 S1500
M205 X10 Y10
G1 F600 X139.203 Y150.607 E27.36305
G1 X139.444 Y150.41 E27.3731